Question_book.svg

<?xml version="1.0" encoding="UTF-8" standalone="no"?>
<!-- Created with Inkscape (http://www.inkscape.org/) -->

<svg
   xmlns:dc="http://purl.org/dc/elements/1.1/"
   xmlns:cc="http://creativecommons.org/ns#"
   xmlns:rdf="http://www.w3.org/1999/02/22-rdf-syntax-ns#"
   xmlns:svg="http://www.w3.org/2000/svg"
   xmlns="http://www.w3.org/2000/svg"
   xmlns:sodipodi="http://sodipodi.sourceforge.net/DTD/sodipodi-0.dtd"
   xmlns:inkscape="http://www.inkscape.org/namespaces/inkscape"
   width="252"
   height="199"
   id="svg2"
   version="1.0"
   inkscape:version="0.47 r22583"
   sodipodi:docname="Question_book.svg"
   inkscape:export-filename="myOPDS.png"
   inkscape:export-xdpi="22.860001"
   inkscape:export-ydpi="22.860001">
  <metadata
     id="metadata10">
    <rdf:RDF>
      <cc:Work
         rdf:about="">
        <dc:format>image/svg+xml</dc:format>
        <dc:type
           rdf:resource="http://purl.org/dc/dcmitype/StillImage" />
        <dc:title></dc:title>
      </cc:Work>
    </rdf:RDF>
  </metadata>
  <defs
     id="defs8">
    <inkscape:perspective
       sodipodi:type="inkscape:persp3d"
       inkscape:vp_x="0 : 99.5 : 1"
       inkscape:vp_y="0 : 1000 : 0"
       inkscape:vp_z="252 : 99.5 : 1"
       inkscape:persp3d-origin="126 : 66.333333 : 1"
       id="perspective12" />
  </defs>
  <sodipodi:namedview
     pagecolor="#ffffff"
     bordercolor="#666666"
     borderopacity="1"
     objecttolerance="10"
     gridtolerance="10"
     guidetolerance="10"
     inkscape:pageopacity="0"
     inkscape:pageshadow="2"
     inkscape:window-width="1024"
     inkscape:window-height="695"
     id="namedview6"
     showgrid="false"
     inkscape:zoom="1.1859296"
     inkscape:cx="126"
     inkscape:cy="121.66343"
     inkscape:window-x="0"
     inkscape:window-y="25"
     inkscape:window-maximized="1"
     inkscape:current-layer="g3" />
  <g
     transform="translate(-135.06609,-358.03129)"
     id="g3">
    <path
       style="fill:#f28500;fill-opacity:1"
       d="m 188.40239,548.4893 c -0.55492,-0.68144 -3.0601,-6.18899 -5.56707,-12.23899 -9.63633,-23.25513 -17.77464,-43.03692 -29.11043,-70.75869 l -11.7598,-28.75869 1.60981,-3.39244 c 0.8854,-1.86584 1.60982,-4.48026 1.60982,-5.80981 0,-1.32955 0.68875,-4.73663 1.53055,-7.57128 1.14139,-3.84349 2.47624,-5.8566 5.25,-7.91764 2.0457,-1.52006 7.99445,-6.7605 13.21945,-11.64544 16.74865,-15.65858 27.9028,-21.64601 40.32498,-21.64601 5.43279,0 6.95133,0.42174 10.27498,2.8536 2.14502,1.56948 4.75728,3.81948 5.80503,5 2.74537,3.09328 4.08617,2.68557 6.91788,-2.1036 3.53961,-5.98642 9.33413,-11.27925 15.16643,-13.8533 4.3161,-1.90488 7.68931,-2.31426 25,-3.03403 11.00588,-0.45763 21.69272,-1.11253 23.74853,-1.45534 4.39236,-0.73245 0.29065,-4.49224 45.65456,41.84879 l 30.10761,30.75611 0,4.43628 c 0,3.99543 0.59452,5.11279 5.98262,11.24389 5.91004,6.72502 5.98283,6.88193 6,12.93516 0.0105,3.71698 -0.47437,6.52428 -1.23262,7.13602 -0.6875,0.55466 -5.975,1.77615 -11.75,2.71442 -5.775,0.93828 -22.74655,4.13956 -37.71455,7.11398 -14.968,2.97441 -27.45074,5.40802 -27.73941,5.40802 -0.28868,0 -2.98599,2.2288 -5.99403,4.9529 -8.3135,7.52874 -10.65092,8.48479 -21.12037,8.63862 l -9.06835,0.13324 -14.32601,7.72018 c -16.78645,9.04608 -30.89461,17.66034 -47.53728,29.02565 -14.97119,10.22385 -14.0818,9.74266 -15.28233,8.2684 z m 14.28233,-18.87074 c 10.45285,-8.85174 29.21955,-22.61353 36.03599,-26.4255 9.93878,-5.55808 16.15279,-7.62841 24.96401,-8.31729 l 8,-0.62546 1.12955,-5.72034 c 0.62126,-3.14618 1.88187,-7.60057 2.80137,-9.89863 1.07111,-2.67694 1.32599,-4.52412 0.70934,-5.14077 -0.52936,-0.52936 -4.26498,-0.94822 -8.30137,-0.93078 -13.80289,0.0596 -27.0538,6.09833 -44.33889,20.20611 -5.5,4.48901 -14.1625,11.29405 -19.25,15.12232 -8.82579,6.64129 -9.25,7.13496 -9.25,10.76461 0,2.09225 -0.28911,6.57011 -0.64246,9.95079 -0.80965,7.74632 0.0648,7.85532 8.14246,1.01494 z m -12.26521,-8.61825 0.46779,-6.75 -18.94418,-45 c -10.4193,-24.75 -19.34488,-45.42 -19.83462,-45.93333 -1.5028,-1.57518 -2.28076,0.22035 -2.71869,6.27479 -0.39563,5.46952 0.0923,7.01817 8.57962,27.22895 16.56735,39.45188 28.43664,67.4139 29.36527,69.17959 1.70885,3.24917 2.61491,1.7806 3.08481,-5 z m 11.18229,-17.18724 c 3.58764,-2.71548 9.79897,-7.79063 13.80295,-11.27811 19.69018,-17.15021 35.30909,-24.78465 50.7057,-24.78465 4.46083,0 6.29022,-0.39918 6.69788,-1.46151 0.31859,-0.83024 -1.78156,-4.82565 -4.86217,-9.25 -2.98264,-4.28367 -10.31328,-14.76349 -16.29029,-23.28849 -5.97701,-8.525 -14.10395,-20.225 -18.05986,-26 -7.47911,-10.9183 -18.27336,-22.23666 -22.87577,-23.9865 -6.49546,-2.46956 -17.61889,0.49835 -27.35308,7.29825 -8.00698,5.59334 -27.60389,23.64247 -27.98809,25.77757 -0.16811,0.93421 7.10215,19.18379 16.15614,40.55462 21.45494,50.64177 21.77104,51.35606 22.72726,51.35606 0.44899,0 3.75168,-2.22176 7.33933,-4.93724 z m 98.7677,-25.34834 c 9.17362,-9.12247 13.39339,-10.19378 45.58613,-11.5733 10.70993,-0.45894 18.71893,-1.23096 19.35355,-1.86558 0.77685,-0.77685 0.77095,-2.53601 -0.0209,-6.22831 -0.60695,-2.83012 -1.10355,-6.86842 -1.10355,-8.97401 0,-6.02945 -0.8029,-6.26228 -17.63549,-5.11415 -29.46991,2.01011 -44.58297,6.23224 -52.9139,14.78254 -3.82335,3.92402 -11.03249,17.00984 -9.96116,18.08118 0.33981,0.3398 2.19394,0.48203 4.12031,0.31606 3.10993,-0.26794 3.63284,0.0436 4.6656,2.7797 0.63971,1.6948 1.48511,3.08145 1.87866,3.08145 0.39355,0 3.10739,-2.37851 6.03076,-5.28558 l -10e-6,0 z m -15.39617,-16.55209 c 2.49289,-4.43551 10.51227,-12.23232 14.93257,-14.51815 6.26566,-3.2401 18.15637,-5.65871 35.19983,-7.15976 22.49355,-1.98106 24.27798,-2.27629 23.89134,-3.95266 -0.17179,-0.74482 -14.86111,-16.0534 -32.64293,-34.01906 -24.865,-25.12208 -32.71607,-32.49785 -34,-31.94169 -0.91818,0.39773 -10.44442,1.05533 -21.16942,1.46134 -23.30558,0.88226 -28.10473,2.09622 -34.11046,8.62837 -3.39423,3.69174 -7.88954,10.49193 -7.88954,11.93473 0,0.62215 2.1375,4.06507 4.75,7.65092 2.6125,3.58585 7.675,10.71041 11.25,15.83235 25.6913,36.8082 35.29508,49.92128 36.56143,49.92128 0.58866,0 2.04089,-1.72695 3.22718,-3.83767 z"
       id="path2176"
       sodipodi:nodetypes="cscccssssssssssscccssssssscccsccscccsssssssccccssssccsssssssssssccsssssssssscccsssssssssscc" />
  </g>
</svg>

<?xml version="1.0" encoding="UTF-8" standalone="no"?>
<!-- Created with Inkscape (http://www.inkscape.org/) -->
<!DOCTYPE svg PUBLIC "-//W3C//DTD SVG 1.0//EN" "http://www.w3.org/TR/2001/REC-SVG-20010904/DTD/svg10.dtd">
<svg
xmlns:dc="http://purl.org/dc/elements/1.1/"
xmlns:cc="http://web.resource.org/cc/"
xmlns:rdf="http://www.w3.org/1999/02/22-rdf-syntax-ns#"
xmlns:svg="http://www.w3.org/2000/svg"
xmlns="http://www.w3.org/2000/svg"
xmlns:sodipodi="http://sodipodi.sourceforge.net/DTD/sodipodi-0.dtd"
xmlns:inkscape="http://www.inkscape.org/namespaces/inkscape"
width="252"
height="199"
id="svg2"
version="1.0">
<g
transform="translate(-135.06609,-358.03129)">
<path
style="fill:#f28500;fill-opacity:1"
d="M 188.40239,548.4893 C 187.84747,547.80786 185.34229,542.30031 182.83532,536.25031 C 173.19899,512.99518 165.06068,493.21339 153.72489,465.49162 L 141.96509,436.73293 L 143.5749,433.34049 C 144.4603,431.47465 145.18472,428.86023 145.18472,427.53068 C 145.18472,426.20113 145.87347,422.79405 146.71527,419.9594 C 147.85666,416.11591 149.19151,414.1028 151.96527,412.04176 C 154.01097,410.5217 159.95972,405.28126 165.18472,400.39632 C 181.93337,384.73774 193.08752,378.75031 205.5097,378.75031 C 210.94249,378.75031 212.46103,379.17205 215.78468,381.60391 C 217.9297,383.17339 220.54196,385.42339 221.58971,386.60391 C 224.33508,389.69719 225.67588,389.28948 228.50759,384.50031 C 232.0472,378.51389 237.84172,373.22106 243.67402,370.64701 C 247.99012,368.74213 251.36333,368.33275 268.67402,367.61298 C 279.6799,367.15535 290.36674,366.50045 292.42255,366.15764 C 296.81491,365.42519 292.7132,361.6654 338.07711,408.00643 L 368.18472,438.76254 L 368.18472,443.19882 C 368.18472,447.19425 368.77924,448.31161 374.16734,454.44271 C 380.07738,461.16773 380.15017,461.32464 380.16734,467.37787 C 380.17788,471.09485 379.69297,473.90215 378.93472,474.51389 C 378.24722,475.06855 372.95972,476.29004 367.18472,477.22831 C 361.40972,478.16659 344.43817,481.36787 329.47017,484.34229 C 314.50217,487.3167 302.01943,489.75031 301.73076,489.75031 C 301.44208,489.75031 298.74477,491.97911 295.73673,494.70321 C 287.42323,502.23195 285.08581,503.188 274.61636,503.34183 L 265.54801,503.47507 L 251.222,511.19525 C 234.43555,520.24133 220.32739,528.85559 203.68472,540.2209 C 188.71353,550.44475 189.60292,549.96356 188.40239,548.4893 z M 202.68472,529.61856 C 213.13757,520.76682 231.90427,507.00503 238.72071,503.19306 C 248.65949,497.63498 254.8735,495.56465 263.68472,494.87577 L 271.68472,494.25031 L 272.81427,488.52997 C 273.43553,485.38379 274.69614,480.9294 275.61564,478.63134 C 276.68675,475.9544 276.94163,474.10722 276.32498,473.49057 C 275.79562,472.96121 272.06,472.54235 268.02361,472.55979 C 254.22072,472.61941 240.96981,478.65812 223.68472,492.7659 C 218.18472,497.25491 209.52222,504.05995 204.43472,507.88822 C 195.60893,514.52951 195.18472,515.02318 195.18472,518.65283 C 195.18472,520.74508 194.89561,525.22294 194.54226,528.60362 C 193.73261,536.34994 194.60707,536.45894 202.68472,529.61856 z M 190.41951,521.00031 L 190.8873,514.25031 L 171.94312,469.25031 C 161.52382,444.50031 152.59824,423.83031 152.1085,423.31698 C 150.6057,421.7418 149.82774,423.53733 149.38981,429.59177 C 148.99418,435.06129 149.48214,436.60994 157.96943,456.82072 C 174.53678,496.2726 186.40607,524.23462 187.3347,526.00031 C 189.04355,529.24948 189.94961,527.78091 190.41951,521.00031 z M 201.6018,503.81307 C 205.18944,501.09759 211.40077,496.02244 215.40475,492.53496 C 235.09493,475.38475 250.71384,467.75031 266.11045,467.75031 C 270.57128,467.75031 272.40067,467.35113 272.80833,466.2888 C 273.12692,465.45856 271.02677,461.46315 267.94616,457.0388 C 264.96352,452.75513 257.63288,442.27531 251.65587,433.75031 C 245.67886,425.22531 237.55192,413.52531 233.59601,407.75031 C 226.1169,396.83201 215.32265,385.51365 210.72024,383.76381 C 204.22478,381.29425 193.10135,384.26216 183.36716,391.06206 C 175.36018,396.6554 155.76327,414.70453 155.37907,416.83963 C 155.21096,417.77384 162.48122,436.02342 171.53521,457.39425 C 192.99015,508.03602 193.30625,508.75031 194.26247,508.75031 C 194.71146,508.75031 198.01415,506.52855 201.6018,503.81307 z M 300.3695,478.46473 C 309.54312,469.34226 313.76289,468.27095 345.95563,466.89143 C 356.66556,466.43249 364.67456,465.66047 365.30918,465.02585 C 366.08603,464.249 366.08013,462.48984 365.28827,458.79754 C 364.68132,455.96742 364.18472,451.92912 364.18472,449.82353 C 364.18472,443.79408 363.38182,443.56125 346.54923,444.70938 C 317.07932,446.71949 301.96626,450.94162 293.63533,459.49192 C 289.81198,463.41594 282.60284,476.50176 283.67417,477.5731 C 284.01398,477.9129 285.86811,478.05513 287.79448,477.88916 C 290.90441,477.62122 291.42732,477.93277 292.46008,480.66886 C 293.09979,482.36366 293.94519,483.75031 294.33874,483.75031 C 294.73229,483.75031 297.44613,481.3718 300.3695,478.46473 z M 284.97333,461.91264 C 287.46622,457.47713 295.4856,449.68032 299.9059,447.39449 C 306.17156,444.15439 318.06227,441.73578 335.10573,440.23473 C 357.59928,438.25367 359.38371,437.95844 358.99707,436.28207 C 358.82528,435.53725 344.13596,420.22867 326.35414,402.26301 C 301.48914,377.14093 293.63807,369.76516 292.35414,370.32132 C 291.43596,370.71905 281.90972,371.37665 271.18472,371.78266 C 247.87914,372.66492 243.07999,373.87888 237.07426,380.41103 C 233.68003,384.10277 229.18472,390.90296 229.18472,392.34576 C 229.18472,392.96791 231.32222,396.41083 233.93472,399.99668 C 236.54722,403.58253 241.60972,410.70709 245.18472,415.82903 C 270.87602,452.63723 280.4798,465.75031 281.74615,465.75031 C 282.33481,465.75031 283.78704,464.02336 284.97333,461.91264 z M 298.85139,437.08364 C 296.66495,434.89721 301.96557,427.75031 305.77361,427.75031 C 309.20371,427.75031 308.90288,430.87831 305.1078,434.67339 C 302.09658,437.6846 300.18772,438.41998 298.85139,437.08364 z M 291.8134,423.72087 C 287.73193,418.87031 287.59171,415.23055 291.09893,405.17402 C 292.79611,400.30755 294.18472,394.69982 294.18472,392.71241 C 294.18472,383.84869 283.44572,381.39062 271.16369,387.44309 C 263.61954,391.16078 256.50655,397.77605 255.32682,402.1718 C 253.93823,407.34576 254.70157,407.96124 261.59192,407.22334 C 266.78777,406.66692 268.10119,406.86209 270.11057,408.48918 C 274.85805,412.33346 269.6177,418.75031 261.73077,418.75031 C 254.4747,418.75031 249.18472,413.69471 249.18472,406.76013 C 249.18472,399.31522 257.61502,389.81098 269.00511,384.41483 C 274.78844,381.67493 276.76814,381.25031 283.75904,381.25031 C 290.70657,381.25031 292.35584,381.59919 295.57737,383.75031 C 297.63658,385.12531 300.19064,387.91988 301.25306,389.96047 C 304.14788,395.52058 303.70596,400.75466 299.55364,410.08831 C 297.28271,415.19293 295.90922,419.84231 295.88697,422.50031 C 295.8674,424.83781 295.51639,426.75031 295.10695,426.75031 C 294.69751,426.75031 293.21541,425.38706 291.8134,423.72087 z "
id="path2176"/>
</g>
</svg>
